images/prologue/png/fourth_step.svg

<svg width="79" height="55" viewBox="0 0 79 55" fill="none" xmlns="http://www.w3.org/2000/svg">
<g clip-path="url(#clip0_3813_1576)">
<path d="M7.06452 2.33002V1.15997H0.963481V2.33002H3.4251V10H4.6029V2.33002H7.06452ZM10.4734 0.900024V10H11.6512V4.66998H14.2423V10H15.4201V3.5H11.6512V0.900024H10.4734ZM21.8279 10.13C22.2754 10.13 22.6052 10.13 23.5239 9.87V8.72601C22.7583 8.96001 22.299 8.96002 21.8279 8.96002C20.4498 8.96002 20.12 8.24502 20.0376 7.33502H23.9244V6.62C23.9244 4.579 23.1941 3.37 21.3803 3.37C19.5665 3.37 18.8362 4.709 18.8362 6.75C18.8362 8.037 19.166 10.13 21.8279 10.13ZM20.014 6.16498C20.0729 5.11198 20.4734 4.53998 21.3803 4.53998C22.3343 4.53998 22.723 5.03398 22.7466 6.16498H20.014ZM35.1116 8.83002V1.15997H33.9338V10H38.3859V8.83002H35.1116ZM44.5522 10.13C44.9997 10.13 45.3295 10.13 46.2482 9.87V8.72601C45.4826 8.96001 45.0233 8.96002 44.5522 8.96002C43.1741 8.96002 42.8444 8.24502 42.7619 7.33502H46.6487V6.62C46.6487 4.579 45.9184 3.37 44.1046 3.37C42.2908 3.37 41.5606 4.709 41.5606 6.75C41.5606 8.037 41.8903 10.13 44.5522 10.13ZM42.7384 6.16498C42.7972 5.11198 43.1977 4.53998 44.1046 4.53998C45.0586 4.53998 45.4473 5.03398 45.4709 6.16498H42.7384ZM51.8187 10.13C52.6432 10.13 53.1025 9.86998 53.4558 9.34998V10H55.3403V8.70001H54.6337V3.5H50.3936V4.66998H53.4558V6.35999C53.1025 5.83999 52.6432 5.58002 51.8187 5.58002C50.3818 5.58002 49.7104 6.72398 49.7104 7.85498C49.7104 8.98598 50.3818 10.13 51.8187 10.13ZM52.172 8.96002C51.3122 8.96002 50.8882 8.50498 50.8882 7.85498C50.8882 7.20498 51.3122 6.75 52.172 6.75C53.0318 6.75 53.4558 7.20498 53.4558 7.85498C53.4558 8.50498 53.0318 8.96002 52.172 8.96002ZM61.8108 3.37C60.9863 3.37 60.4092 3.72103 60.0558 4.28003V3.5H58.8779V12.08H60.0558V9.21997C60.4092 9.77897 60.9863 10.13 61.8108 10.13C63.7188 10.13 64.3901 8.661 64.3901 6.75C64.3901 4.839 63.7188 3.37 61.8108 3.37ZM61.6341 8.96002C60.4798 8.96002 60.0558 8.31 60.0558 6.75C60.0558 5.19 60.4798 4.53998 61.6341 4.53998C62.7883 4.53998 63.2123 5.19 63.2123 6.75C63.2123 8.31 62.7883 8.96002 61.6341 8.96002ZM3.66066 30.13C5.45092 30.13 6.47561 28.791 6.47561 26.75C6.47561 24.709 5.45092 23.37 3.66066 23.37C1.87039 23.37 0.845703 24.709 0.845703 26.75C0.845703 28.791 1.87039 30.13 3.66066 30.13ZM3.66066 28.96C2.44752 28.96 2.02351 28.44 2.02351 26.75C2.02351 25.06 2.44752 24.54 3.66066 24.54C4.8738 24.54 5.29781 25.06 5.29781 26.75C5.29781 28.44 4.8738 28.96 3.66066 28.96ZM13.0987 24.67V23.5H11.4262V22.07H13.0987V20.9H10.2484V23.5H9.30616V24.67H10.2484V30H11.4262V24.67H13.0987ZM24.4702 23.682L28.2863 30H29.4641V21.16H28.2863V27.478H28.0979L24.2818 21.16H23.104V30H24.2818V23.682H24.4702ZM35.1048 30.13C35.9293 30.13 36.3886 29.87 36.742 29.35V30H38.6265V28.7H37.9198V23.5H33.6797V24.67H36.742V26.36C36.3886 25.84 35.9293 25.58 35.1048 25.58C33.6679 25.58 32.9965 26.724 32.9965 27.855C32.9965 28.986 33.6679 30.13 35.1048 30.13ZM35.4582 28.96C34.5984 28.96 34.1744 28.505 34.1744 27.855C34.1744 27.205 34.5984 26.75 35.4582 26.75C36.318 26.75 36.742 27.205 36.742 27.855C36.742 28.505 36.318 28.96 35.4582 28.96ZM44.1341 27.348L45.7831 30H47.2082L45.1942 26.763L47.2082 23.5H45.7831L44.1341 26.178H43.2155V20.9H42.0377V30H43.2155V27.348H44.1341ZM53.03 30.13C54.7614 30.13 55.6683 29.311 55.6683 27.14V23.5H54.4905V27.4C54.4905 28.57 54.0665 28.96 53.03 28.96C51.9936 28.96 51.5695 28.57 51.5695 27.4V23.5H50.3917V27.14C50.3917 29.311 51.2987 30.13 53.03 30.13Z" fill="white"/>
<path d="M2.73058 52.83L4.56796 50.867C5.59265 49.775 6.12266 49.021 6.12266 47.76C6.12266 46.499 5.45131 45.03 3.54327 45.03C1.63522 45.03 0.963867 46.499 0.963867 48.15H2.14168C2.14168 46.85 2.56569 46.2 3.54327 46.2C4.52085 46.2 4.94486 46.785 4.94486 47.695C4.94486 48.644 4.47374 49.216 3.41371 50.308L0.963867 52.83V54H6.00489V52.83H2.73058ZM12.11 54.13C14.1358 54.13 14.8072 52.661 14.8072 51.27C14.8072 49.489 13.7118 48.67 12.2396 48.93L14.5716 46.33V45.16H9.76617V46.33H13.0169L10.9322 48.67L11.4033 49.84H12.2867C13.0287 49.84 13.6294 50.165 13.6294 51.27C13.6294 52.31 13.2054 52.96 12.11 52.96C11.0146 52.96 10.5906 52.31 10.5906 51.27H9.41282C9.41282 52.661 10.0842 54.13 12.11 54.13ZM21.5484 45.03C19.0986 45.03 18.3448 47.11 18.3448 49.58C18.3448 52.05 19.0986 54.13 21.5484 54.13C23.9982 54.13 24.752 52.05 24.752 49.58C24.752 47.11 23.9982 45.03 21.5484 45.03ZM23.5742 49.58C23.5742 50.308 23.5271 50.906 23.4211 51.387L20.3235 46.551C20.6297 46.317 21.0302 46.2 21.5484 46.2C23.1149 46.2 23.5742 47.227 23.5742 49.58ZM19.5226 49.58C19.5226 48.865 19.5697 48.267 19.6639 47.786L22.7616 52.609C22.4671 52.843 22.0666 52.96 21.5484 52.96C19.9701 52.96 19.5226 51.933 19.5226 49.58ZM31.3776 45.03C28.9277 45.03 28.1739 47.11 28.1739 49.58C28.1739 52.05 28.9277 54.13 31.3776 54.13C33.8274 54.13 34.5812 52.05 34.5812 49.58C34.5812 47.11 33.8274 45.03 31.3776 45.03ZM33.4034 49.58C33.4034 50.308 33.3563 50.906 33.2503 51.387L30.1527 46.551C30.4589 46.317 30.8593 46.2 31.3776 46.2C32.9441 46.2 33.4034 47.227 33.4034 49.58ZM29.3517 49.58C29.3517 48.865 29.3989 48.267 29.4931 47.786L32.5907 52.609C32.2963 52.843 31.8958 52.96 31.3776 52.96C29.7993 52.96 29.3517 51.933 29.3517 49.58ZM38.2332 49.502V50.672H42.3791V49.502H38.2332ZM47.7932 52.83L49.6306 50.867C50.6553 49.775 51.1853 49.021 51.1853 47.76C51.1853 46.499 50.514 45.03 48.6059 45.03C46.6979 45.03 46.0265 46.499 46.0265 48.15H47.2043C47.2043 46.85 47.6283 46.2 48.6059 46.2C49.5835 46.2 50.0075 46.785 50.0075 47.695C50.0075 48.644 49.5364 49.216 48.4764 50.308L46.0265 52.83V54H51.0675V52.83H47.7932ZM57.1726 54.13C59.1985 54.13 59.8696 52.661 59.8696 51.27C59.8696 49.489 58.7745 48.67 57.3022 48.93L59.6341 46.33V45.16H54.8288V46.33H58.0796L55.9948 48.67L56.466 49.84H57.3493C58.0913 49.84 58.692 50.165 58.692 51.27C58.692 52.31 58.268 52.96 57.1726 52.96C56.0773 52.96 55.6533 52.31 55.6533 51.27H54.4755C54.4755 52.661 55.1468 54.13 57.1726 54.13ZM66.3168 54.13C68.59 54.13 69.226 52.83 69.226 51.66C69.226 50.542 68.908 49.684 67.471 49.294V49.086C68.4957 48.696 68.7548 48.124 68.7548 47.24C68.7548 46.07 68.1188 45.03 66.3168 45.03C64.5147 45.03 63.8787 46.07 63.8787 47.24C63.8787 48.124 64.1378 48.696 65.1625 49.086V49.294C63.7256 49.684 63.4076 50.529 63.4076 51.66C63.4076 52.83 64.0436 54.13 66.3168 54.13ZM66.3168 48.605C65.3863 48.605 65.0565 48.098 65.0565 47.435C65.0565 46.642 65.3863 46.2 66.3168 46.2C67.2355 46.2 67.577 46.642 67.577 47.435C67.577 48.098 67.2355 48.605 66.3168 48.605ZM66.3168 52.96C64.9152 52.96 64.5854 52.258 64.5854 51.335C64.5854 50.412 64.9152 49.775 66.3168 49.775C67.7066 49.775 68.0482 50.412 68.0482 51.335C68.0482 52.258 67.7066 52.96 66.3168 52.96ZM75.6414 45.03C72.9795 45.03 72.6498 47.383 72.6498 48.67V50.36C72.6498 52.648 73.38 54.13 75.4647 54.13C77.5494 54.13 78.2797 52.661 78.2797 51.01C78.2797 49.359 77.5494 47.89 75.6414 47.89C74.8169 47.89 74.1809 48.371 73.8276 48.8C73.8276 47.643 73.8629 46.2 75.6414 46.2C76.1125 46.2 76.6896 46.2 77.4552 46.434V45.29C76.5365 45.03 76.089 45.03 75.6414 45.03ZM75.4647 49.047C76.619 49.047 77.1019 49.71 77.1019 51.01C77.1019 52.31 76.619 52.96 75.4647 52.96C74.3105 52.96 73.8276 51.92 73.8276 50.88C73.8276 49.71 74.3105 49.047 75.4647 49.047Z" fill="white" fill-opacity="0.33"/>
</g>
<defs>
<clipPath id="clip0_3813_1576">
<rect width="79" height="55" fill="white"/>
</clipPath>
</defs>
</svg>

<svg xmlns="http://www.w3.org/2000/svg" width="79" height="55" fill="none"><g fill="#fff" clip-path="url(#a)"><path d="M7.065 2.33V1.16H.963v1.17h2.462V10h1.178V2.33h2.462ZM10.473.9V10h1.178V4.67h2.591V10h1.178V3.5h-3.769V.9h-1.178Zm11.355 9.23c.447 0 .777 0 1.696-.26V8.726c-.766.234-1.225.234-1.696.234-1.378 0-1.708-.715-1.79-1.625h3.886V6.62c0-2.041-.73-3.25-2.544-3.25-1.813 0-2.544 1.339-2.544 3.38 0 1.287.33 3.38 2.992 3.38Zm-1.814-3.965c.059-1.053.46-1.625 1.366-1.625.954 0 1.343.494 1.367 1.625h-2.733ZM35.112 8.83V1.16h-1.178V10h4.452V8.83h-3.274Zm9.44 1.3c.448 0 .778 0 1.696-.26V8.726c-.765.234-1.225.234-1.696.234-1.378 0-1.708-.715-1.79-1.625h3.887V6.62c0-2.041-.73-3.25-2.544-3.25S41.56 4.709 41.56 6.75c0 1.287.33 3.38 2.991 3.38Zm-1.814-3.965c.06-1.053.46-1.625 1.367-1.625.954 0 1.342.494 1.366 1.625h-2.733Zm9.08 3.965c.825 0 1.285-.26 1.638-.78V10h1.884V8.7h-.706V3.5h-4.24v1.17h3.062v1.69c-.354-.52-.813-.78-1.637-.78-1.437 0-2.109 1.144-2.109 2.275s.672 2.275 2.109 2.275Zm.354-1.17c-.86 0-1.284-.455-1.284-1.105 0-.65.424-1.105 1.284-1.105.86 0 1.284.455 1.284 1.105 0 .65-.424 1.105-1.284 1.105Zm9.639-5.59c-.825 0-1.402.351-1.755.91V3.5h-1.178v8.58h1.178V9.22c.353.559.93.91 1.755.91 1.908 0 2.58-1.469 2.58-3.38 0-1.911-.672-3.38-2.58-3.38Zm-.177 5.59c-1.154 0-1.578-.65-1.578-2.21s.424-2.21 1.578-2.21c1.154 0 1.578.65 1.578 2.21s-.424 2.21-1.578 2.21ZM3.661 30.13c1.79 0 2.815-1.339 2.815-3.38S5.45 23.37 3.66 23.37.846 24.709.846 26.75s1.024 3.38 2.815 3.38Zm0-1.17c-1.213 0-1.637-.52-1.637-2.21s.424-2.21 1.637-2.21 1.637.52 1.637 2.21-.424 2.21-1.637 2.21Zm9.438-4.29V23.5h-1.673v-1.43H13.1V20.9h-2.85v2.6h-.943v1.17h.942V30h1.178v-5.33H13.1Zm11.371-.988L28.286 30h1.178v-8.84h-1.178v6.318h-.188l-3.816-6.318h-1.178V30h1.178v-6.318h.188Zm10.635 6.448c.824 0 1.284-.26 1.637-.78V30h1.885v-1.3h-.707v-5.2h-4.24v1.17h3.062v1.69c-.353-.52-.813-.78-1.637-.78-1.437 0-2.108 1.144-2.108 2.275s.67 2.275 2.108 2.275Zm.353-1.17c-.86 0-1.284-.455-1.284-1.105 0-.65.424-1.105 1.284-1.105.86 0 1.284.455 1.284 1.105 0 .65-.424 1.105-1.284 1.105Zm8.676-1.612L45.784 30h1.424l-2.014-3.237 2.014-3.263h-1.425l-1.649 2.678h-.919V20.9h-1.177V30h1.178v-2.652h.918Zm8.896 2.782c1.731 0 2.638-.819 2.638-2.99V23.5H54.49v3.9c0 1.17-.424 1.56-1.46 1.56s-1.46-.39-1.46-1.56v-3.9h-1.178v3.64c0 2.171.907 2.99 2.638 2.99Z"/><path fill-opacity=".33" d="m2.73 52.83 1.838-1.963c1.025-1.092 1.555-1.846 1.555-3.107 0-1.261-.672-2.73-2.58-2.73s-2.58 1.469-2.58 3.12h1.179c0-1.3.424-1.95 1.401-1.95.978 0 1.402.585 1.402 1.495 0 .949-.471 1.521-1.531 2.613L.964 52.83V54h5.04v-1.17H2.732Zm9.38 1.3c2.026 0 2.697-1.469 2.697-2.86 0-1.781-1.095-2.6-2.567-2.34l2.332-2.6v-1.17H9.766v1.17h3.25l-2.084 2.34.471 1.17h.884c.742 0 1.342.325 1.342 1.43 0 1.04-.424 1.69-1.519 1.69s-1.52-.65-1.52-1.69H9.414c0 1.391.671 2.86 2.697 2.86Zm9.438-9.1c-2.45 0-3.203 2.08-3.203 4.55 0 2.47.754 4.55 3.203 4.55 2.45 0 3.204-2.08 3.204-4.55 0-2.47-.754-4.55-3.204-4.55Zm2.026 4.55c0 .728-.047 1.326-.153 1.807l-3.098-4.836c.307-.234.707-.351 1.225-.351 1.567 0 2.026 1.027 2.026 3.38Zm-4.051 0c0-.715.047-1.313.14-1.794l3.099 4.823c-.295.234-.695.351-1.214.351-1.578 0-2.025-1.027-2.025-3.38Zm11.855-4.55c-2.45 0-3.204 2.08-3.204 4.55 0 2.47.754 4.55 3.204 4.55s3.203-2.08 3.203-4.55c0-2.47-.754-4.55-3.203-4.55Zm2.025 4.55c0 .728-.047 1.326-.153 1.807l-3.097-4.836c.306-.234.706-.351 1.225-.351 1.566 0 2.025 1.027 2.025 3.38Zm-4.051 0c0-.715.047-1.313.141-1.794l3.098 4.823c-.295.234-.695.351-1.213.351-1.579 0-2.026-1.027-2.026-3.38Zm8.881-.078v1.17h4.146v-1.17h-4.146Zm9.56 3.328 1.838-1.963c1.024-1.092 1.554-1.846 1.554-3.107 0-1.261-.671-2.73-2.58-2.73-1.907 0-2.578 1.469-2.578 3.12h1.177c0-1.3.424-1.95 1.402-1.95.977 0 1.401.585 1.401 1.495 0 .949-.47 1.521-1.53 2.613l-2.45 2.522V54h5.04v-1.17h-3.274Zm9.38 1.3c2.026 0 2.697-1.469 2.697-2.86 0-1.781-1.095-2.6-2.568-2.34l2.332-2.6v-1.17H54.83v1.17h3.25l-2.084 2.34.471 1.17h.883c.742 0 1.343.325 1.343 1.43 0 1.04-.424 1.69-1.52 1.69-1.095 0-1.519-.65-1.519-1.69h-1.178c0 1.391.672 2.86 2.698 2.86Zm9.144 0c2.273 0 2.909-1.3 2.909-2.47 0-1.118-.318-1.976-1.755-2.366v-.208c1.025-.39 1.284-.962 1.284-1.846 0-1.17-.636-2.21-2.438-2.21s-2.438 1.04-2.438 2.21c0 .884.259 1.456 1.283 1.846v.208c-1.436.39-1.754 1.235-1.754 2.366 0 1.17.636 2.47 2.909 2.47Zm0-5.525c-.93 0-1.26-.507-1.26-1.17 0-.793.33-1.235 1.26-1.235.919 0 1.26.442 1.26 1.235 0 .663-.341 1.17-1.26 1.17Zm0 4.355c-1.402 0-1.732-.702-1.732-1.625s.33-1.56 1.732-1.56c1.39 0 1.731.637 1.731 1.56s-.341 1.625-1.731 1.625Zm9.324-7.93c-2.662 0-2.991 2.353-2.991 3.64v1.69c0 2.288.73 3.77 2.815 3.77 2.084 0 2.815-1.469 2.815-3.12s-.73-3.12-2.639-3.12c-.824 0-1.46.481-1.813.91 0-1.157.035-2.6 1.813-2.6.471 0 1.049 0 1.814.234V45.29c-.918-.26-1.366-.26-1.814-.26Zm-.176 4.017c1.154 0 1.637.663 1.637 1.963s-.483 1.95-1.637 1.95-1.637-1.04-1.637-2.08c0-1.17.483-1.833 1.637-1.833Z"/></g><defs><clipPath id="a"><path fill="#fff" d="M0 0h79v55H0z"/></clipPath></defs></svg>
